icon/fa/users-line.svg

<svg xmlns="http://www.w3.org/2000/svg" viewBox="0 0 640 512"><!--! Font Awesome Free 6.1.2 by @fontawesome - https://fontawesome.com License - https://fontawesome.com/license/free (Icons: CC BY 4.0, Fonts: SIL OFL 1.1, Code: MIT License) Copyright 2022 Fonticons, Inc.--><path d="M211.2 96c0 35.3-28.7 64-64 64s-64-28.7-64-64c0-35.35 28.7-64 64-64s64 28.65 64 64zM32 256c0-35.3 28.65-64 64-64h96c12.2 0 23.7 3.4 33.4 9.4-37.2 15.1-65.6 47.2-75.8 86.6H64c-17.67 0-32-14.3-32-32zm383.9-55.4c9.4-5.5 20.4-8.6 32.1-8.6h96c35.3 0 64 28.7 64 64 0 17.7-14.3 32-32 32h-82.4c-10.4-40.1-40.5-72.6-77.7-87.4zm-24.7 25.8c32.1 7.4 58.1 30.9 68.9 61.6 3.6 10 5.5 20.8 5.5 32 0 17.7-14.3 32-32 32h-224c-17.7 0-32-14.3-32-32 0-11.2 1.9-22 5.5-32 10.5-29.7 35.2-52.8 66-60.9 7-2 16-3.1 24.5-3.1h96c7.4 0 14.7.8 21.6 2.4zM563.2 96c0 35.3-28.7 64-64 64s-64-28.7-64-64c0-35.35 28.7-64 64-64s64 28.65 64 64zm-321.6 16c0-44.18 35.8-80 80-80s80 35.82 80 80c0 44.2-35.8 80-80 80s-80-35.8-80-80zM608 416c17.7 0 32 14.3 32 32s-14.3 32-32 32H32c-17.67 0-32-14.3-32-32s14.33-32 32-32h576z"/></svg>

<svg xmlns="http://www.w3.org/2000/svg" viewBox="0 0 640 512" height="1em" width="1em">
<!--! Font Awesome Free 6.1.2 by @fontawesome - https://fontawesome.com License - https://fontawesome.com/license/free (Icons: CC BY 4.0, Fonts: SIL OFL 1.1, Code: MIT License) Copyright 2022 Fonticons, Inc.-->
  <path d="M211.2 96C211.2 131.3 182.5 160 147.2 160C111.9 160 83.2 131.3 83.2 96C83.2 60.65 111.9 32 147.2 32C182.5 32 211.2 60.65 211.2 96zM32 256C32 220.7 60.65 192 96 192H192C204.2 192 215.7 195.4 225.4 201.4C188.2 216.5 159.8 248.6 149.6 288H64C46.33 288 32 273.7 32 256V256zM415.9 200.6C425.3 195.1 436.3 192 448 192H544C579.3 192 608 220.7 608 256C608 273.7 593.7 288 576 288H493.6C483.2 247.9 453.1 215.4 415.9 200.6zM391.2 226.4C423.3 233.8 449.3 257.3 460.1 288C463.7 298 465.6 308.8 465.6 320C465.6 337.7 451.3 352 433.6 352H209.6C191.9 352 177.6 337.7 177.6 320C177.6 308.8 179.5 298 183.1 288C193.6 258.3 218.3 235.2 249.1 227.1C256.1 225.1 265.1 224 273.6 224H369.6C377 224 384.3 224.8 391.2 226.4zM563.2 96C563.2 131.3 534.5 160 499.2 160C463.9 160 435.2 131.3 435.2 96C435.2 60.65 463.9 32 499.2 32C534.5 32 563.2 60.65 563.2 96zM241.6 112C241.6 67.82 277.4 32 321.6 32C365.8 32 401.6 67.82 401.6 112C401.6 156.2 365.8 192 321.6 192C277.4 192 241.6 156.2 241.6 112zM608 416C625.7 416 640 430.3 640 448C640 465.7 625.7 480 608 480H32C14.33 480 0 465.7 0 448C0 430.3 14.33 416 32 416H608z"/>
</svg>
